X:320
T:Old Flail, The
T:Paddy in London
R:jig
C:Vincent Broderick (1920-2008)
H:Also in D, #129
Z:id:hn-jig-320
M:6/8
K:G
DEG GAB|deg gab|agd ege|dBG AGE|DEG GAB|deg gab|agd ege|dBG A2G:|
eaa abc'|eaa age|dgg ged|ged BAG|DEG GAB|deg gab|agd ege|dBG A2G:|

